svg/monochrome/line-spacing.svg

<svg xmlns="http://www.w3.org/2000/svg" viewBox="0 0 24 24"><path class="uim-tertiary" d="M21 8H10a1 1 0 0 1 0-2H21a1 1 0 0 1 0 2zM21 13H10a1 1 0 0 1 0-2H21a1 1 0 0 1 0 2z"/><path class="uim-primary" d="M4.667,18.5a.99943.99943,0,0,1-1-1V6.5a1,1,0,0,1,2,0v11A.99942.99942,0,0,1,4.667,18.5Z"/><path class="uim-tertiary" d="M21,18H10a1,1,0,0,1,0-2H21a1,1,0,0,1,0,2Z"/><path class="uim-primary" d="M6.334 9a.99676.99676 0 0 1-.76953-.36035L4.667 7.5625 3.76855 8.64062a1.00053 1.00053 0 0 1-1.5371-1.28124l1.667-2A1.00226 1.00226 0 0 1 4.667 5h0a1 1 0 0 1 .76856.36035l1.666 2A1 1 0 0 1 6.334 9zM4.667 19a1.00226 1.00226 0 0 1-.76855-.35938l-1.667-2a1.00053 1.00053 0 1 1 1.5371-1.28124L4.667 16.4375l.89746-1.07715a.99991.99991 0 0 1 1.53711 1.2793l-1.666 2A1 1 0 0 1 4.667 19z"/></svg>

<svg xmlns="http://www.w3.org/2000/svg" viewBox="0 0 24 24"><path class="uim-tertiary" d="M21 8H10a1 1 0 0 1 0-2h11a1 1 0 0 1 0 2zm0 5H10a1 1 0 0 1 0-2h11a1 1 0 0 1 0 2z"/><path class="uim-primary" d="M4.667 18.5a1 1 0 0 1-1-1v-11a1 1 0 0 1 2 0v11a1 1 0 0 1-1 1Z"/><path class="uim-tertiary" d="M21 18H10a1 1 0 0 1 0-2h11a1 1 0 0 1 0 2Z"/><path class="uim-primary" d="M6.334 9a.997.997 0 0 1-.77-.36l-.897-1.078-.898 1.079A1 1 0 0 1 2.23 7.359l1.667-2A1.002 1.002 0 0 1 4.667 5a1 1 0 0 1 .769.36l1.666 2A1 1 0 0 1 6.334 9zM4.667 19a1.002 1.002 0 0 1-.769-.36l-1.667-2a1 1 0 1 1 1.538-1.28l.898 1.078.897-1.078a1 1 0 0 1 1.538 1.28l-1.666 2a1 1 0 0 1-.769.36z"/></svg>
